X: 206
T: Julia Delaney
C:anon
B:Francis O'Neill: "The Dance Music of Ireland" (1907) no. 643
Z:2012 John Chambers <jc:trillian.mit.edu>
R:Reel
M:C|
L:1/8
K:Dm
|: "Dm"dcAG F2DF | "C"E2CE "Dm"F2D2 | dcAG F2DF |\
[1,3 "Am"Addc "Dm(Bb)"defe :|[2,4 "A(m)"Add"#"c "Dm"d4 :|
|: "Dm"{e}f2fe fagf | "C"e{d}cgc acgc |\
[1,3 "Dm"fede fagf | "C"edce "Dm"Adde :|\
[2,4 "Dm"fedf "C"edce | "A(m)"Add"#"c "Dm"d4 :|

